X:321
T:Terribus
C:Joe Buchanan's Scottish Tome - Page 096.1
I:096 1
R:March
Z:Carl Allison
L:1/8
M:2/4
K:D
A | "D"dA d>e | "D"fa fd | "Em"g>f e>d | "A7"ce cA |
"D7"dA d>e | "D7"fa fd | "Em"g>f "A7"e(a/g/) | "D"f"G"d "D"d<d :|
g | "D"a2 (a>g) | "D"fa fd | "Em"g>f e>d | "A7"ce cA |
[1 "D"a2 (a>g) | "D"fa fd | "G"g>f e(a/g/) | "D"fd d<d :|
[2 "D"dA d>e | "D"fa fd | "Em"g>f "A7"e(a/g/) | "D"f"G"d "D"d<d |]

